svgs/sharp-light/t.svg

<svg xmlns="http://www.w3.org/2000/svg" viewBox="0 0 384 512"><!--! Font Awesome Pro 6.6.0 by @fontawesome - https://fontawesome.com License - https://fontawesome.com/license (Commercial License) Copyright 2024 Fonticons, Inc. --><path d="M16 32L0 32 0 64l16 0 160 0 0 400 0 16 32 0 0-16 0-400 160 0 16 0 0-32-16 0L192 32 16 32z"/></svg>

<svg xmlns="http://www.w3.org/2000/svg" viewBox="0 0 384 512"><!--! Font Awesome Pro 6.4.0 by @fontawesome - https://fontawesome.com License - https://fontawesome.com/license (Commercial License) Copyright 2023 Fonticons, Inc. --><path d="M16 32H0V64H16 176V464v16h32V464 64H368h16V32H368 192 16z"/></svg>
